X: 1
T: G\aangl\aat efter Erik Rynefors
R: gaanglaat
Z: 1997 by John Chambers <jc@trillian.mit.edu>
M: 4/4
L: 1/16
K: D
FG \
| "D"A2d2 dcde f2d2 A2F2 | "Em"E2G2 GFGA B2G2 E2D2 | "A7"C3D E2F2 G2B2 A2G2 | "D"FGFE F2G2 A6 FG |
| "D"A2d2 dcde f2d2 A2F2 | "Em"E2G2 GFGA B2G2 E2D2 | "A7"C3D E2F2 G2A2 B2c2 | "D"dedc d2f2 d6 :|
|: d2 \
| "G"B2dB G2BG D2G2 B2d2 | "D"A2dA F2AF D2F2 A2d2 | "A"c2ec A2cA E2A2 c2e2 | "D"d2fd A2dA F2AF D2d2 |
| "G"B2dB G2BG D2G2 B2d2 | "D"A2dA F2AF D2F2 A2d2 | "A"c2ec A2ce g2A2 B2c2 | "D"dedc d2f2 d6 :|
